!!!Melodie: eigene
!!!Typ: Lied
**kern	**silbe	**silbe	**silbe	**silbe	**silbe	**silbe	**silbe	**silbe	**silbe	**silbe
*clefG2	*lang:DE	*lang:DE	*lang:DE	*lang:DE	*lang:DE	*lang:DE	*lang:DE	*lang:DE	*lang:DE	*lang:DE
*k[f#]	*	*	*	*	*	*	*	*	*	*
*M4/4	*	*	*	*	*	*	*	*	*	*
*met(c)	*	*	*	*	*	*	*	*	*	*
4r	%	%	%	%	%	%	%	%	%	%
4g	Nun	Sein’	Er	da#	Wie	so	Die	bei	Sei	Der
4g	lob’,	Wohl#	hat	#zu	sich	tut	Got#	sei#	Lob	woll’
4f#	mein’	#tat	uns	sein	ein	der	#tes#	#ner	und	in
=	=	=	=	=	=	=	=	=	=	=
4e	Seel’,	tut	wis#	Güt’	Vat’r	Herr	#gnad'	lieb’n	Preis	uns
4d	den	er	#sen	ohn’	er#	uns	al#	Ge#	mit	ver#
(4g	Her#	meh#	las#	Ma#	#bar#	Ar#	#lei#	#mei#	Eh#	#meh#
4a)	|	|	|	|	|	|	|	|	|	|
=	=	=	=	=	=	=	=	=	=	=
2;b	#ren	#ren,	#sen	#ßen,	#met	#men,	#ne	#ne,	#ren	#ren,
4r	%	%	%	%	%	%	%	%	%	%
4b	was	ver#	sein	es	üb’r	so	steht	die	Gott	was
=	=	=	=	=	=	=	=	=	=	=
4b	in	#giss	hei#	mang’lt	sei#	wir	fest	stets	Va#	er
4a	mir	das	#lig's	an	#ner	ihn	und	in	#ter,	aus
4b	ist,	nicht,	Recht	sein’r	jung#	kind#	bleibt	sei#	Sohn,	Gna#
4a	den	O	und	Er#	#en	#lich	in	#ner	hei#	#den
=	=	=	=	=	=	=	=	=	=	=
4g	Na#	Her#	sein	#bar#	Kind#	fürch#	E#	Furcht	#li#	uns
4a	#men	#ze	Ge#	#mung	#lein	#ten	#wig#	be#	#gem	ver#
2;g	sein!	mein!	#richt,	nicht:	klein:	rein.	#keit	#reit,	Geist!	#heißt,
=:|	=	=	=	=	=	=	=	=	=	=
4r	.	%	.	%	.	%	.	%	.	%
4g	.	hat	.	sein’	.	Er	.	die	.	dass
8Lg	.	dir	.	Zorn	.	kennt	.	sei#	.	wir
8Ja	.	|	.	|	.	|	.	|	.	|
4b	.	dein’	.	lässt	.	das	.	#nen	.	ihm
=	=	=	=	=	=	=	=	=	=	=
(4a	.	Sünd’	.	er	.	arm’	.	Bund	.	fest
4b)	.	|	.	|	.	|	.	|	.	|
4g	.	ver#	.	bald	.	Ge#	.	be#	.	ver#
4f#	.	#ge#	.	fah#	.	#mäch#	.	#hal#	.	#trau#
=	=	=	=	=	=	=	=	=	=	=
2;e	.	#ben	.	#ren,	.	#te,	.	#ten.	.	#en,
4r	.	%	.	%	.	%	.	%	.	%
4g	.	und	.	straft	.	und	.	Er	.	gänz#
=	=	=	=	=	=	=	=	=	=	=
8La	.	heilt	.	nicht	.	weiß,	.	herrscht	.	#lich
8Jg	.	|	.	|	.	|	.	|	.	|
4f#	.	dein’	.	nach	.	wir	.	im	.	ver#
8Lg	.	Schwach#	.	uns#	.	sind	.	Him#	.	#lass'n
8Jf#	.	|	.	|	.	|	.	|	.	|
4e	.	#heit	.	#er'	.	nur	.	#mel#	.	auf
=	=	=	=	=	=	=	=	=	=	=
2d	.	groß,	.	Schuld,	.	Staub,	.	#reich:	.	ihn,
4r	.	%	.	%	.	%	.	%	.	%
4d	.	er#	.	die	.	gleich#	.	Ihr	.	von
=	=	=	=	=	=	=	=	=	=	=
4g	.	#rett'	.	Gnad’	.	#wie	.	star#	.	Her#
4g	.	dein	.	tut	.	das	.	#ken	.	#zen
8La	.	ar#	.	er	.	Gras	.	En#	.	auf
8Jb	.	|	.	|	.	|	.	|	.	|
4cc	.	#mes	.	nicht	.	zu	.	#gel,	.	ihn
=	=	=	=	=	=	=	=	=	=	=
(8.Lb	.	Le#	.	spa#	.	re#	.	wal#	.	bau#
16Ja	.	|	.	|	.	|	.	|	.	|
4b)	.	|	.	|	.	|	.	|	.	|
2;g	.	#ben,	.	#ren,	.	#chen,	.	#tet	.	#en,
=	=	=	=	=	=	=	=	=	=	=
4r	.	%	.	%	.	%	.	%	.	%
4g	.	nimmt	.	den	.	ein	.	sein’s	.	dass
4cc	.	dich	.	Blö#	.	Blum’	.	Lob’s	.	uns’r
4cc	.	in	.	#den	.	und	.	und	.	Herz,
=	=	=	=	=	=	=	=	=	=	=
8Lcc	.	sei#	.	ist	.	fal#	.	dient	.	Mut
8Jb	.	|	.	|	.	|	.	|	.	|
4b	.	#nen	.	er	.	#lend'	.	zu#	.	und
2;a	.	Schoß;	.	hold,	.	Laub,	.	#gleich	.	Sinn
=	=	=	=	=	=	=	=	=	=	=
4r	.	%	.	%	.	%	.	%	.	%
4a	.	mit	.	sein’	.	Der	.	dem	.	ihm
4b	.	rei#	.	Güt’	.	Wind	.	gro#	.	ste#
4b	.	#chem	.	ist	.	nur	.	#ßen	.	#tig
=	=	=	=	=	=	=	=	=	=	=
8Lcc	.	Trost	.	hoch	.	drü#	.	Herr’n	.	tu’
8Jb	.	|	.	|	.	|	.	|	.	|
4a	.	be#	.	er#	.	#ber	.	zu	.	an#
2dd	.	#schüt#	.	#ha#	.	we#	.	eh#	.	#hang#
=	=	=	=	=	=	=	=	=	=	=
2;g	.	#tet,	.	#ben	.	#het,	.	#ren	.	#en:
4r	.	%	.	%	.	%	.	%	.	%
4b	.	ver#	.	ob	.	so	.	und	.	D’rauf
=	=	=	=	=	=	=	=	=	=	=
8La	.	#jüngt	.	den',	.	ist	.	treibt	.	spre#
8Jg	.	|	.	|	.	|	.	|	.	|
4f#	.	dem	.	die	.	es	.	sein	.	#chen
8Lg	.	Ad#	.	fürch#	.	nim#	.	heil#	.	wir
8Jf#	.	|	.	|	.	|	.	|	.	|
4e	.	#ler	.	#ten	.	#mer	.	#'ges	.	zur
=	=	=	=	=	=	=	=	=	=	=
2;d	.	gleich,	.	ihn;	.	da:	.	Wort;	.	Stund’:
4r	.	%	.	%	.	%	.	%	.	%
4d	.	der	.	so	.	al#	.	mein’	.	A#
=	=	=	=	=	=	=	=	=	=	=
4g	.	Kö#	.	fer#	.	#so	.	See#	.	#men!
4f#	.	#nig	.	#ne	.	der	.	#le	.	wir
4e	.	schafft	.	der	.	Men#	.	soll	.	wer#
4d	.	Recht,	.	Ost	.	#sche	.	auch	.	#den's
=	=	=	=	=	=	=	=	=	=	=
4a	.	be#	.	vom	.	ver#	.	ver#	.	er#
4b	.	#hü#	.	A#	.	#ge#	.	#meh#	.	#lang#
2;a	.	#tet	.	#bend,	.	#het,	.	#ren	.	#en,
=	=	=	=	=	=	=	=	=	=	=
4r	.	%	.	%	.	%	.	%	.	%
4b	.	die	.	ist	.	sein	.	sein	.	glaub’n
8Lcc	.	Lei#	.	uns#	.	End’	.	Lob	.	wir
8Jb	.	|	.	|	.	|	.	|	.	|
4a	.	#den'	.	#'re	.	das	.	an	.	aus
=	=	=	=	=	=	=	=	=	=	=
4b	.	in	.	Sünd’	.	ist	.	al#	.	Her#
4a	.	sei’m	.	da#	.	ihm	.	#lem	.	#zens
2;g	.	Reich.	.	#hin.	.	nah.	.	Ort.	.	Grund.
==	==	==	==	==	==	==	==	==	==	==
*-	*-	*-	*-	*-	*-	*-	*-	*-	*-	*-
